public/svgs/value/title4-cn.svg

<svg xmlns="http://www.w3.org/2000/svg" width="1524" height="422" fill="none" viewBox="0 0 1524 422"><path fill="#bb1212" d="M781.2 99.6v15.8H866V99.6zM866 65.8h-84.8v14.8H866zm19.2 71 20 15.2c-10 7.8-22.2 15.4-33.2 22 12.6 6.8 27.6 11.8 44.2 14.8C911 194 904 204 901 210.4c-47-11-77.4-35.8-96.2-74.2h-23.6v48.2l44.4-9.8c0 6.8 1.2 16.8 2.4 22.2-56.2 13-65.4 15-71.4 18.2-2.2-5.2-8.8-14.2-12.8-18 5-3.8 12.4-11.4 12.4-22.2V45h56.6c-1.4-5.2-3.2-10.4-5-15l24.6-5.2c2.8 6.2 5.4 13.6 7.2 20.2h50.8v91.2h-60c5.6 9.4 13 17.6 22 25 11.6-7.4 24.4-16.6 32.8-24.4m184 47.6h47.2V207H992v-22.6h53.4v-40h-38.6v-22.2h38.6V89.4h-22c-3 10.4-7 20-11.2 27.6-4.8-3-15.6-8.4-21.2-10.8 2-3.6 4-7.4 6-11.6l-11.4 5.2c-1.2-6-4.2-14.8-7.6-23v136.6h-23.8v-143c-1.2 16.8-4.4 38.8-9 53l-17.6-6.4c4.8-13.2 8.4-35.6 9.8-52l16.8 2.4V26.6H978v37.8l11.6-4.8c4 7.8 8.2 17.4 11 25.2 5-14.6 8.6-31.8 10.6-48.8l23.2 3.2c-1.4 9.4-3 18.8-5 27.8h16V27.8h23.8V67h40.8v22.4h-40.8v32.8h36.6v22.2h-36.6zm246.6-59-12 19.2c-9-7.8-25.6-17.8-41.6-26.6 4.2 42.2 13.4 66.8 30.8 66.6 4.6 0 6.6-12.6 7.2-34 5.4 5.6 12.2 11.8 17.6 15-2.4 33.2-9 44-25.6 44-44.6 0-55.2-57.8-57-148.4h-100V36.4h124.2c-.2 17 0 33 .6 47.6 12-11.2 24.2-24.2 32.4-35.2l21.4 11.6C1301.4 74 1286 88.6 1272 100c16.4 8 34.2 17.8 43.8 25.4m92.8 22 1.2 20.6c-7.2 1.4-14.2 2.8-21.4 4.2v40.4h-20.6v-36.8c-11.8 2.2-23 4.2-32.8 6l-4.8-23c10.2-1.2 23.4-3 37.6-5.2v-22.8h-13.6c-6.4 0-13.8 1.2-15.6 3-.8-4-4.2-13.8-6.8-19 4.2-1.4 6.6-7.2 10-16 1.8-4.2 5-14.8 8.4-28h-18V48.4h23.2c1.4-7.2 2.4-14.6 3.2-21.8l21.6 4c-1 6-2.2 11.8-3.4 17.8h29.4v22.4h-35.4c-4 13.8-8.6 27-13 38.6h10V81h20.6v28.4h17.4l-.2 21.4h-17.2v19.8zm65.2-117-2.4 5.8c10 22.8 28.8 47 47 60.8-5.4 4.2-13.2 12.4-17 18.4-15.4-13.2-30.4-33.6-42.2-55.2-8 14.6-17.8 28.4-30 41.4h18v31.2c12.8-7.6 26.2-16.4 35.6-24.4l16.2 20c-16 10.4-35.6 21.4-51.8 29.2v19.6c0 8 1.4 9.2 9.6 9.2h23.4c7.6 0 8.8-4.4 9.8-27.8 5.2 3.8 15 7.8 21.4 9.4-2.6 30.8-8.8 39.8-29.2 39.8h-28.6c-23.8 0-30-7.2-30-30.4v-70c-3.4 3.4-7.2 6.8-10.8 10-3.6-5.6-11.2-14.2-16.2-18.2 26.2-20.8 43.2-49 52-73.2z"/><path fill="#000" d="M75.827 389V273.08h54.096q27.384 0 27.384 27.384v10.584q0 5.712-3.36 9.744l-5.88 7.056 7.056 5.88q5.544 4.536 5.544 13.44v14.448q0 27.384-27.384 27.384zm20.496-18.648h36.456q7.392 0 7.392-7.224v-17.64q0-7.224-7.392-7.224H96.323zm0-50.736h33.096q7.392 0 7.392-7.392v-13.272q0-7.224-7.392-7.224H96.323zM184.928 389V273.08h77.952v18.648h-57.456v27.888h52.416v18.648h-52.416v32.088h57.456V389zm100.571 0V273.08h20.496v46.536h48.888V273.08h20.496V389h-20.496v-50.736h-48.888V389zm118.453 0V273.08h20.496V389zm49.055 0V273.08h22.344l51.408 82.656V273.08h20.496V389h-22.176l-51.576-82.656V389zm122.882 0V273.08h44.52q45.36 0 45.36 45.528v24.864q0 45.528-45.36 45.528zm20.496-18.648h25.2q23.688 0 23.688-23.688v-31.248q0-23.688-23.688-23.688h-25.2zm123.784 14.616 35.784-111.888h31.92l35.616 111.888-2.52 4.032h-17.304l-7.896-25.536h-47.88L739.825 389h-16.968zm33.432-40.152h36.624l-16.8-53.088h-3.192zm86.405 16.8V273.08h20.496v90.048q0 7.224 7.392 7.224h34.104q7.392 0 7.392-7.224V273.08h20.496v88.536q0 27.384-27.384 27.384H867.39q-27.384 0-27.384-27.384M957.499 389V273.08h44.521q45.36 0 45.36 45.528v24.864q0 45.528-45.36 45.528zm20.496-18.648h25.195c15.8 0 23.69-7.896 23.69-23.688v-31.248c0-15.792-7.89-23.688-23.69-23.688h-25.195zm83.425 14.616 35.78-111.888h31.92l35.62 111.888-2.52 4.032h-17.31l-7.89-25.536h-47.88L1081.07 389h-16.96zm33.43-40.152h36.62l-16.8-53.088h-3.19zm85.73 16.8v-61.152q0-27.384 27.39-27.384h45.69l9.92 7.728v10.92h-55.11c-4.93 0-7.39 2.408-7.39 7.224v64.176c0 4.816 2.46 7.224 7.39 7.224h55.11v10.92l-9.92 7.728h-45.69q-27.39 0-27.39-27.384M1286.28 389V273.08h20.5V389zm38.81-97.272V273.08h93.57v18.648h-36.45V389h-20.67v-97.272zm100.88-14.616 2.52-4.032h17.47l27.38 52.584 27.55-52.584h17.64l2.36 4.032-37.13 70.224V389h-20.67v-41.664z"/></svg>

<svg width="1524" height="422" viewBox="0 0 1524 422" fill="none" xmlns="http://www.w3.org/2000/svg">
<path d="M781.2 99.6V115.4H866V99.6H781.2ZM866 65.8H781.2V80.6H866V65.8ZM885.2 136.8L905.2 152C895.2 159.8 883 167.4 872 174C884.6 180.8 899.6 185.8 916.2 188.8C911 194 904 204 901 210.4C854 199.4 823.6 174.6 804.8 136.2H781.2V184.4L825.6 174.6C825.6 181.4 826.8 191.4 828 196.8C771.8 209.8 762.6 211.8 756.6 215C754.4 209.8 747.8 200.8 743.8 197C748.8 193.2 756.2 185.6 756.2 174.8V45H812.8C811.4 39.8 809.6 34.6 807.8 30L832.4 24.8C835.2 31 837.8 38.4 839.6 45H890.4V136.2H830.4C836 145.6 843.4 153.8 852.4 161.2C864 153.8 876.8 144.6 885.2 136.8ZM1069.2 184.4H1116.4V207H992V184.4H1045.4V144.4H1006.8V122.2H1045.4V89.4H1023.4C1020.4 99.8 1016.4 109.4 1012.2 117C1007.4 114 996.6 108.6 991 106.2C993 102.6 995 98.8 997 94.6L985.6 99.8C984.4 93.8 981.4 85 978 76.8V213.4H954.2V70.4C953 87.2 949.8 109.2 945.2 123.4L927.6 117C932.4 103.8 936 81.4 937.4 65L954.2 67.4V26.6H978V64.4L989.6 59.6C993.6 67.4 997.8 77 1000.6 84.8C1005.6 70.2 1009.2 53 1011.2 36L1034.4 39.2C1033 48.6 1031.4 58 1029.4 67H1045.4V27.8H1069.2V67H1110V89.4H1069.2V122.2H1105.8V144.4H1069.2V184.4ZM1315.8 125.4L1303.8 144.6C1294.8 136.8 1278.2 126.8 1262.2 118C1266.4 160.2 1275.6 184.8 1293 184.6C1297.6 184.6 1299.6 172 1300.2 150.6C1305.6 156.2 1312.4 162.4 1317.8 165.6C1315.4 198.8 1308.8 209.6 1292.2 209.6C1247.6 209.6 1237 151.8 1235.2 61.2H1135.2V36.4H1259.4C1259.2 53.4 1259.4 69.4 1260 84C1272 72.8 1284.2 59.8 1292.4 48.8L1313.8 60.4C1301.4 74 1286 88.6 1272 100C1288.4 108 1306.2 117.8 1315.8 125.4ZM1408.6 147.4L1409.8 168C1402.6 169.4 1395.6 170.8 1388.4 172.2V212.6H1367.8V175.8C1356 178 1344.8 180 1335 181.8L1330.2 158.8C1340.4 157.6 1353.6 155.8 1367.8 153.6V130.8H1354.2C1347.8 130.8 1340.4 132 1338.6 133.8C1337.8 129.8 1334.4 120 1331.8 114.8C1336 113.4 1338.4 107.6 1341.8 98.8C1343.6 94.6 1346.8 84 1350.2 70.8H1332.2V48.4H1355.4C1356.8 41.2 1357.8 33.8 1358.6 26.6L1380.2 30.6C1379.2 36.6 1378 42.4 1376.8 48.4H1406.2V70.8H1370.8C1366.8 84.6 1362.2 97.8 1357.8 109.4H1367.8V81H1388.4V109.4H1405.8L1405.6 130.8H1388.4V150.6L1408.6 147.4ZM1473.8 30.4L1471.4 36.2C1481.4 59 1500.2 83.2 1518.4 97C1513 101.2 1505.2 109.4 1501.4 115.4C1486 102.2 1471 81.8 1459.2 60.2C1451.2 74.8 1441.4 88.6 1429.2 101.6H1447.2V132.8C1460 125.2 1473.4 116.4 1482.8 108.4L1499 128.4C1483 138.8 1463.4 149.8 1447.2 157.6V177.2C1447.2 185.2 1448.6 186.4 1456.8 186.4H1480.2C1487.8 186.4 1489 182 1490 158.6C1495.2 162.4 1505 166.4 1511.4 168C1508.8 198.8 1502.6 207.8 1482.2 207.8H1453.6C1429.8 207.8 1423.6 200.6 1423.6 177.4V107.4C1420.2 110.8 1416.4 114.2 1412.8 117.4C1409.2 111.8 1401.6 103.2 1396.6 99.2C1422.8 78.4 1439.8 50.2 1448.6 26L1473.8 30.4Z" fill="#BB1212"/>
<path d="M75.8269 389V273.08H129.923C148.179 273.08 157.307 282.208 157.307 300.464V311.048C157.307 314.856 156.187 318.104 153.947 320.792L148.067 327.848L155.123 333.728C158.819 336.752 160.667 341.232 160.667 347.168V361.616C160.667 379.872 151.539 389 133.283 389H75.8269ZM96.3229 370.352H132.779C137.707 370.352 140.171 367.944 140.171 363.128V345.488C140.171 340.672 137.707 338.264 132.779 338.264H96.3229V370.352ZM96.3229 319.616H129.419C134.347 319.616 136.811 317.152 136.811 312.224V298.952C136.811 294.136 134.347 291.728 129.419 291.728H96.3229V319.616ZM184.928 389V273.08H262.88V291.728H205.424V319.616H257.84V338.264H205.424V370.352H262.88V389H184.928ZM285.499 389V273.08H305.995V319.616H354.883V273.08H375.379V389H354.883V338.264H305.995V389H285.499ZM403.952 389V273.08H424.448V389H403.952ZM453.007 389V273.08H475.351L526.759 355.736V273.08H547.255V389H525.079L473.503 306.344V389H453.007ZM575.889 389V273.08H620.409C650.649 273.08 665.769 288.256 665.769 318.608V343.472C665.769 373.824 650.649 389 620.409 389H575.889ZM596.385 370.352H621.585C637.377 370.352 645.273 362.456 645.273 346.664V315.416C645.273 299.624 637.377 291.728 621.585 291.728H596.385V370.352ZM720.169 384.968L755.953 273.08H787.873L823.489 384.968L820.969 389H803.665L795.769 363.464H747.889L739.825 389H722.857L720.169 384.968ZM753.601 344.816H790.225L773.425 291.728H770.233L753.601 344.816ZM840.006 361.616V273.08H860.502V363.128C860.502 367.944 862.966 370.352 867.894 370.352H901.998C906.926 370.352 909.39 367.944 909.39 363.128V273.08H929.886V361.616C929.886 379.872 920.758 389 902.502 389H867.39C849.134 389 840.006 379.872 840.006 361.616ZM957.499 389V273.08H1002.02C1032.26 273.08 1047.38 288.256 1047.38 318.608V343.472C1047.38 373.824 1032.26 389 1002.02 389H957.499ZM977.995 370.352H1003.19C1018.99 370.352 1026.88 362.456 1026.88 346.664V315.416C1026.88 299.624 1018.99 291.728 1003.19 291.728H977.995V370.352ZM1061.42 384.968L1097.2 273.08H1129.12L1164.74 384.968L1162.22 389H1144.91L1137.02 363.464H1089.14L1081.07 389H1064.11L1061.42 384.968ZM1094.85 344.816H1131.47L1114.67 291.728H1111.48L1094.85 344.816ZM1180.58 361.616V300.464C1180.58 282.208 1189.71 273.08 1207.97 273.08H1253.66L1263.58 280.808V291.728H1208.47C1203.54 291.728 1201.08 294.136 1201.08 298.952V363.128C1201.08 367.944 1203.54 370.352 1208.47 370.352H1263.58V381.272L1253.66 389H1207.97C1189.71 389 1180.58 379.872 1180.58 361.616ZM1286.28 389V273.08H1306.78V389H1286.28ZM1325.09 291.728V273.08H1418.66V291.728H1382.21V389H1361.54V291.728H1325.09ZM1425.97 277.112L1428.49 273.08H1445.96L1473.34 325.664L1500.89 273.08H1518.53L1520.89 277.112L1483.76 347.336V389H1463.09V347.336L1425.97 277.112Z" fill="black"/>
</svg>
